!!!COM: Mozart, Wolfgang Amadeus
!!!OTL: Musikalische Würfelspiele, Kontre-Tänze
!!!SCA: K<sup>6</sup> Anh. C30.01 (K<sup>3</sup> Anh. 294d)
**kern	**kern
*staff2	*staff2
*clefF4	*clefG2
*M2/4	*M2/4
*MM110	*MM110
*>[A,A1,A,A2,B]	*>[A,A1,A,A2,B]
*>norep[A,A2,B]	*>norep[A,A2,B]
*>A	*>A
=7	=7
4C	8cc
.	8cc
4C	8ee
.	8ee
=81	=81
4C	8cc
.	8g
4r	8cc
.	8ee
=40	=40
8G	16ff
.	16ee
8GG	16dd
.	16cc
8GG	16b
.	16cc
8GG	16dd
.	16b
=69	=69
4C	8cc
.	16g
.	16e
4r	8c
.	8c
=147	=147
4D	16dd
.	16ee
.	16ff#
.	16gg
4F#	16aa
.	16ff#
.	16ee
.	16dd
=92	=92
4G	8gg
.	8dd
4r	8b
.	8g
=132	=132
16C	8ee
16A	.
16F#	4cc
16A	.
16AA	.
16D	.
16C	16a
16D	16f#
=58	=58
*>A1	*>A1
4GG	4g 4b 4gg
16G	4r
16F	.
16E	.
16D	.
=58:|!	=58:|!
*>A2	*>A2
4GG	4g 4b 4gg
16GG	4r
16AA	.
16BB	.
16C#	.
=144||	=144||
*>B	*>B
4D	8d
.	16f#
.	16a
4D	8dd
.	8ff#
=104	=104
4G	8gg
.	16ddd
.	16bb
4GG	4gg
=162	=162
4C	8gg
.	8ccc
4C	16ffQ
.	16ee
.	16dd
.	16cc
=76	=76
4GG	16dd
.	16cc
.	16b
.	16a
16G	4g
16F	.
16E	.
16D	.
=31	=31
8C	8cc
8C	16cc
.	16ee
8C	16gg
.	16ee
8C	16gg
.	16ee
=48	=48
4C	8cc
.	16cc
.	16ee
4r	8gg
.	16gg
.	16ee
=96	=96
16G	8dd
16D	.
16BB	8dd
16GG	.
16G	8b
16D	.
16BB	8b
16GG	.
=127	=127
4C	4cc
4CC	4c
==	==
*-	*-
